!!!COM:	Johannes Ockeghem
!!!CDT:	~1425-1497/02/06
!!!OPR:	Missa Quinti toni
!!!ONM:	2
!!!OTL:	Gloria
!!!AGN:	Mass; Gloria
!!!SCT:	Ock1012b
!!!SCA:	Ock1012b
!!!voices:	3
!!!voices-OPR:	3
**kern	**kern	**kern
*staff3	*staff2	*staff1
*Ivox	*Ivox	*Ivox
*I"Contratenor	*I"Tenor	*I"Discantus
*I'Ct	*I'T	*I'D
*>[A,B]	*>[A,B]	*>[A,B]
*>A	*>A	*>A
*clefF4	*clefGv2	*clefG2
*k[b-e-]	*k[b-]	*k[b-]
*M2/1	*M2/1	*M2/1
*met(C)	*met(C)	*met(C)
!!section: Et in terra pax
!!!OMD: Et in terra pax
=1-	=1-	=1-
1F	0F	0f
1D	.	.
=2	=2	=2
1BB-	1F	1d
2r	2B-\	2g/
2F\	2A/	2f/
=3	=3	=3
2E-\	2B-\	2g/
2C/	2c\	2e/
1D	1A	1f
=4	=4	=4
2r	1G	0g
2C/	.	.
2E-\	2r	.
2E-\	2G/	.
=5	=5	=5
1BB-	2B-\	2r
.	2B-\	2d/
2r	1F	2f/
2FF/	.	2f/
=6	=6	=6
1GG	2r	1B-
.	2B-\	.
2FF/	2A/	2c/
[2GG/	[2B-\	2B-/
=7	=7	=7
4GG/]	4B-\]	2.d/
4AA/	4A/	.
2.BB-/	1F	.
.	.	4e/
.	.	2.f/
4C/	.	.
4D\	2B-\	.
4E-\	.	4e-i/
=8	=8	=8
2F\	2A/	2c/
2BB-/	2B-\	2B-/
2r	2c\	2e-/
2BB-/	[2B-\	2d/
=9	=9	=9
1FF	2B-\]	1c
.	2A/	.
1BB-	1B-	[1B-
=10	=10	=10
1GG	2r	1B-]
.	2B-\	.
2FF/	2A/	2r
[2F\	2A/	2f/
=11	=11	=11
4F\]	1G	2g/
4D\	.	.
2E-\	.	2g/
2.F\	2F/	2.a/
.	[2c\	.
4E-\	.	4f/
=12	=12	=12
2C/	2c\]	2g/
2D\	2A/	1f
1BB-	2B-\	.
.	2G/	2b-\
=13	=13	=13
2r	1F	2a/
2D\	.	2f/
1C	1c	2g/
.	.	2e/
=14	=14	=14
1BB-	2.d\	1d
.	4c\	.
[1C	2A/	2c/
.	2G/	[2e/
=15	=15	=15
1C]	2c\	2e/]
.	1c	2c/
2r	.	1d
2G\	2Bni\	.
=16	=16	=16
2A\	1c	2c/
1F	.	1A
.	1F	.
2D\	.	2F/
=17	=17	=17
2C/	2E/	2G/
2r	2.F/	2F/
2.FF/	.	2.A/
.	4E/	.
.	2F/	.
4GG/	.	4B-/
=18	=18	=18
2AA/	2E/	2c/
2FF/	2F/	2d/
2r	2E/	2c/
2FF/	2F/	[2f/
=19	=19	=19
1C	1G	2f/]
.	.	2e/
1D	1F	1f
=20	=20	=20
1C	1c	1r
[1F	2c\	1a
.	2c\	.
=21	=21	=21
1F]	2c\	2a/
.	2c\	2a/
1r	1c	2a/
.	.	2a/
=22	=22	=22
1BB-	1d	1b-
2FF/	2c\	2a/
2GG/	[2B-\	2g/
=23	=23	=23
1BB-	4B-\]	2f/
.	4A/	.
.	2.B-\	1g
1C	.	.
.	4G/	.
.	2A/	2e/
=24	=24	=24
1BB-	1B-	1d
[1BB-	1d	2r
.	.	[2f/
=25	=25	=25
1BB-]	1d	2f/]
.	.	2f/
2r	2d\	2f/
2D\	2d\	2f/
=26	=26	=26
2C/	2e\	2g/
2C/	2e\	2g/
2r	1f	1a
2FF/	.	.
=27	=27	=27
2GG/	2e-\	2g/
2AA/	2c\	1f
1BB-	1B-	.
.	.	[2b-\
=28	=28	=28
2GG/	1e-i	4b-\]
.	.	8a/L
.	.	8b-/J
2AA/	.	2.cc\
2FF/	1f	.
.	.	4b-\
[2F\	.	4a/
.	.	4g/
=29	=29	=29
4F\]	2d\	2f/
4D\	.	.
2C/	1e-i	2g/
2AA/	.	2f/
2BB-/	2d\	[2b-\
=30	=30	=30
1FF	1c	2b-\]
.	.	2a/
1GG	[1B-	2.g/
.	.	8f/L
.	.	8e-i/J
=31	=31	=31
2.BB-/	2B-\]	1d
.	4A/	.
4C/	4G/	.
1D	1F	1a
=32	=32	=32
1r	2G/	2b-\
.	2.A/	2.cc\
[1F	.	.
.	4B-\	4b-\
.	[2c\	4a/
.	.	4g/
=33	=33	=33
2F\]	2c\]	2a/
2E-\	2G/	1g
1D	1A	.
.	.	2f#i/
=34	=34	=34
2r	1G	1.g
1G	.	.
.	1d	.
2F\	.	[2a/
=35	=35	=35
[0D	2d\	4a/]
.	.	4f/
.	1d	2f/
.	.	1f
.	2B-\	.
=36	=36	=36
0D_	1A	1f
.	2r	1f
.	2A/	.
=37	=37	=37
0D]	2B-\	0f
.	2A/	.
.	2.B-\	.
.	4c\	.
=38	=38	=38
2r	1A	2r
2D\	.	2f/
2E-\	2G/	2g/
2D\	[2B-\	2f/
=39	=39	=39
2E-\	2B-\]	2g/
2C/	2c\	2e/
1D	1A	1f
=40	=40	=40
1GG	2G/	2.g/
.	2.B-\	.
.	.	4f/
2GG/	.	1d
.	4c\	.
[2BB-/	[2d\	.
=41	=41	=41
4BB-/]	4d\]	2.f/
4C/	4e\	.
2.D\	2.f\	.
.	.	4g/
.	.	2.a/
4E-\	4e-i\	.
[2F\	4d\	.
.	8c\L	4b-\
.	8B-\J	.
=42	=42	=42
2F\]	2A/	2.cc\
2C/	2G/	.
.	.	4b-\
2D\	2F/	4a/
.	.	4g/
2AA/	2c\	2a/
=43	=43	=43
2.BB-/	2B-\	2.d/
.	2G/	.
8AA/L	.	4c/
8GG/J	.	.
2FF/	2A/	2d/
2GG/	[2G/	2B-/
=44	=44	=44
1D	2G/]	1A
.	2F#i/	.
1GG	1G	[1G
=45	=45	=45
2r	1B-	1G]
2GG/	.	.
1D	2B-\	1r
.	2B-\	.
=46	=46	=46
1E-	1c	1r
[1D	1d	1f
=47	=47	=47
1D]	2r	2f/
.	2d\	2f/
1C	1e-i	1g
=48	=48	=48
1D	2d\	1f
.	2.B-\	.
4BB-/	.	2r
4C/	4A/	.
4D\	2G/	2b-\
4E-\	.	.
=49	=49	=49
2F\	1F	2a/
2D\	.	2f/
1BB-	2r	2g/
.	2B-\	[2f/
=50	=50	=50
2F\	2A/	2f/]
2D\	2F/	2f/
2E-\	2G/	2b-\
2F\	[2F/	2a/
=51	=51	=51
2FF/	2F/]	2.cc\
2r	2F/	.
.	.	4b-\
2GG/	2B-\	2g/
2D\	2A/	2f/
=52	=52	=52
2.C/	2.c\	2e/
.	.	2.g/
2E-\	4B-\	.
.	2G/	.
2D\	.	4f/
.	2F/	2d/
4BB-/	.	.
=53	=53	=53
2C/	2E-i/	2e-i/
2BB-/	2B-\	2d/
2r	2A/	2f/
2BB-/	[2B-\	2d/
=54	=54	=54
2E-\	2B-\]	2.c/
2F\	2A/	.
.	.	4A/
2E-\	2B-\	2G/
[2D\	2f\	2F/
=55	=55	=55
2D\]	2d\	2B-/
2C/	2e\	2c/
2BB-/	1f	2d/
[2D\	.	2B-/
=56	=56	=56
2D\]	2B-\	2d/
2C/	2c\	2e/
1BB-	2d\	1f
.	[2B-\	.
=57	=57	=57
2GG/	2B-\]	2B-/
2FF/	2A/	2c/
2BB-/	1B-	2d/
4r	.	[2B-/
[4BB-/	.	.
=58	=58	=58
4BB-/]	2G/	2B-/]
4C/	.	.
2D\	2F/	2A/
2.BB-/	2r	[1B-
.	[2f\	.
4C/	.	.
=59	=59	=59
2D\	4f\]	1B-]
.	4e\	.
2E-\	2g\	.
[1D	2f\	2r
.	[2d\	[2f/
=60	=60	=60
2D\]	2d\]	4f/]
.	.	4e/
2C/	2e-i\	2g/
2D\	1d	2f/
[2BB-/	.	[2d/
=61	=61	=61
2BB-/]	2B-\	2d/]
2AA/	2c\	2e-i/
2BB-/	2d\	1d
[2GG/	[2B-\	.
=62	=62	=62
2GG/]	2B-\]	2B-/
2FF/	2A/	2c/
1BB-	2B-\	2d/
.	4c\	[2B-/
.	[4d\	.
=63	=63	=63
1D	4d\]	4B-/]
.	4e\	4c/
.	2f\	2d/
2C/	2r	2e/
2D\	2F/	2f/
=64	=64	=64
2E-\	2G/	2r
2F\	2A/	2f/
2E-\	2B-\	2g/
2C/	2c\	2a/
=65	=65	=65
2BB-/	2d\	2.b-\
2GG/	2e\	.
.	.	4a/
1FF	1f	2cc\
.	.	2a/
=66	=66	=66
2BB-/	2r	2b-\
2C/	2e-i\	2g/
1D	4d\	2f/
.	2d\	.
.	.	2r
.	4B-\	.
=67	=67	=67
2r	2A/	2f/
2.E-\	2G/	2.g/
.	1B-	.
4F\	.	8f/L
.	.	8e/J
2G\	.	2d/
=68	=68	=68
2C/	2c\	2c/
2.D\	2A/	1f
.	2.d\	.
2BB-/	.	.
.	.	[2f/
4AA/	4c\	.
=69	=69	=69
2C/	4A/	4f/]
.	4G/	4e/
2GG/	2B-\	4d/
.	.	4c/
2C/	2c\	2c/
2D\	[2F/	2r
=70	=70	=70
1F	2F/]	2.a/
.	1c	.
.	.	4g/
2E-\	.	2g/
2D\	[2d\	2f/
=71	=71	=71
2G\	4d\]	2b-\
.	4c\	.
4F\	2d\	4a/
4D\	.	4f/
2C/	2e\	2g/
2D\	2f\	4f/
.	.	[4d/
=72	=72	=72
2BB-/	1F	4d/]
.	.	8c/L
.	.	8B-/J
2FF/	.	2A/
1C	1E	2G/
.	.	[2c/
=73	=73	=73
2FF/	1F	2c/]
1F	.	2d/
.	1A	2c/
2D\	.	2f/
=74	=74	=74
2E-\	1G	2g/
2G\	.	2b-\
1F	2.c\	2a/
.	.	2f/
.	4A/	.
=75	=75	=75
2E-\	2B-\	2g/
2D\	2F/	1f
1C	1G	.
.	.	2e/
=76	=76	=76
0FFl	0Fl	0fl
!!LO:LB:i:g=z
=77||	=77||	=77||
*>B	*>B	*>B
*clefF4	*clefGv2	*clefG2
*k[b-e-]	*k[b-]	*k[b-]
*M2/1	*M2/1	*M2/1
*met(C)	*met(C)	*met(C)
!!section: Qui tollis
!!!OMD: Qui tollis
0F	0c	0a
=78	=78	=78
1F	1c	1a
1F	1c	1a
=79	=79	=79
0BB-	0d	1f
.	.	[1b-
=80	=80	=80
1r	1d	1b-]
1F	1c	[1a
=81	=81	=81
1D	0B-	1a]
1E-	.	1g
=82	=82	=82
1F	1A	1a
1D	1F	1a
=83	=83	=83
1C	1c	1a
1F	1c	1a
=84	=84	=84
2.BB-/	1B-	2g/
.	.	1f
4C/	.	.
2D\	1B-	.
2E-\	.	4e-i/
.	.	4d/
=85	=85	=85
1.F	1A	0c
.	1A	.
4E-\	.	.
4D\	.	.
=86	=86	=86
1C	1A	1r
[1F	1A	1a
=87	=87	=87
1F]	1c	1a
1FF	1c	1a
=88	=88	=88
1r	0F	1cc
1AA	.	1cc
=89	=89	=89
0GG	0G	1b-
.	.	1b-
=90	=90	=90
0D	0F	1a
.	.	[1d
=91	=91	=91
0G	1B-	1d]
.	1B-	1d
=92	=92	=92
0C	1G	1e
.	1A	1e
=93	=93	=93
1BB-	1B-	1d
1C	1E-	1g
=94	=94	=94
1GG	1B-	1g
1r	[1B-	2f/
.	.	2d/
=95	=95	=95
1G	1B-]	1e-i
1D	2A/	[1d
.	2F/	.
=96	=96	=96
0E-	0G	1d]
.	.	1c
=97	=97	=97
0D	1A	1d
.	1d	1r
=98	=98	=98
0r	1d	1a
.	2c\	1a
.	[2d\	.
=99	=99	=99
1D	2d\]	2b-\
.	4c\	1a
.	4B-\	.
1F	1A	.
.	.	4g/
.	.	4f/
=100	=100	=100
1C	1G	1e
2r	1A	1c
[2F\	.	.
=101	=101	=101
2F\]	1B-	1d
2D\	.	.
1C	1c	1e
=102	=102	=102
2D\	2F/	1f
2F\	2A/	.
2E-\	2B-\	1g
[2C/	[2c\	.
=103	=103	=103
2C/]	4c\]	1c
.	4B-\	.
1F	4A/	.
.	4G/	.
.	2.F/	2c/
2FF/	.	2A/
.	4A/	.
=104	=104	=104
2GG/	2G/	2B-/
2AA/	2F/	2.c/
2FF/	2A/	.
.	.	4B-/
2r	2B-\	4A/
.	.	4G/
=105	=105	=105
1FF	2c\	2F/
.	2F/	2A/
2C/	2E/	2G/
2D\	2F/	2F/
=106	=106	=106
2.F\	2c\	2A/
.	2d\	2B-/
4D\	.	.
2C/	2e\	2c/
2r	2f\	2d/
=107	=107	=107
2C/	2c\	2e/
2BB-/	2d\	2f/
2GG/	2e\	2g/
2FF/	[2f\	2a/
=108	=108	=108
1BB-	2f\]	4b-\
.	.	4a/
.	2g\	4g/
.	.	4f/
2r	1c	1e
2C/	.	.
=109	=109	=109
2F\	2r	2f/
2E-\	2c\	2g/
2F\	2A/	2f/
2G\	2B-\	2d/
=110	=110	=110
1C	1c	1e
1AA	1F	1c
=111	=111	=111
1GG	1G	1r
1C	1A-	1c
=112	=112	=112
1BBn	1G	1d
2r	1c	1e
2C/	.	.
=113	=113	=113
1G	2B-\	1d
.	1G	.
[1C	.	1g
.	[2c\	.
=114	=114	=114
2C/]	2c\]	2e/
1BB-	1d	1f
2C/	[2c\	2e/
=115	=115	=115
1GG	2c\]	1d
.	2Bni\	.
1C	[1c	1c
=116	=116	=116
1.F	2c\]	1r
.	1A	.
.	.	[1a
2D\	2F/	.
=117	=117	=117
1D	1F	1a]
1C	1r	1a
=118	=118	=118
1F	1c	1a
1r	2B-\	1b-
.	[2d\	.
=119	=119	=119
1G	2d\]	1b-
.	2e\	.
1F	1f	1a
=120	=120	=120
1D	1r	1f
1C	1e	1g
=121	=121	=121
1F	1f	1a
1G	1d	1b-
=122	=122	=122
1A	2c\	1.cc
.	1A	.
1F	.	.
.	2F/	2a/
=123	=123	=123
2r	1F	1a
2D\	.	.
2E-\	1c	2g/
[2F\	.	2a/
=124	=124	=124
4F\]	2d\	2b-\
4G\	.	.
1A	2c\	1cc
.	1A	.
2F\	.	2f/
=125	=125	=125
2D\	1B-	4g/
.	.	4f/
2E-\	.	4e/
.	.	4d/
1F	[1A	1c
=126	=126	=126
1D	2A/]	1f
.	1B-	.
1r	.	1g
.	2A/	.
=127	=127	=127
0GG	1G	0b-
.	1G	.
=128	=128	=128
1.D	0F	0a
2BB-/	.	.
=129	=129	=129
1C	1E	0r
1C	1E	.
=130	=130	=130
0FF	1F	0a
.	1c	.
=131	=131	=131
0r	1d	1f
.	1d	1f
=132	=132	=132
0C	1e	1g
.	1e	1g
=133	=133	=133
1FF	2f\	1a
.	2d\	.
2GG/	2e\	2g/
2FF/	[2f\	[2a/
=134	=134	=134
1AA	4f\]	4a/]
.	4e\	4b-\
.	2c\	1cc
1GG	2d\	.
.	2r	2bni\
=135	=135	=135
2r	1c	0cc
2.C/	.	.
.	1F	.
4BB-/	.	.
2AA/	.	.
=136	=136	=136
2BB-/	1G	1r
2GG/	.	.
2FF/	[1A	1cc
[2F\	.	.
=137	=137	=137
2F\]	1A]	1f
2D\	.	.
1G	1B-	1g
=138	=138	=138
1.F	1A	1.a
.	[1d	.
[2G\	.	[2b-\
=139	=139	=139
1G]	1d]	1b-]
2A\	2c\	1a
2F\	2d\	.
=140	=140	=140
2r	2e\	2.cc\
2F\	1f	.
.	.	4b-\
1C	.	1g
.	2e\	.
=141	=141	=141
2.D\	1f	1f
4C/	.	.
2AA/	2e\	2r
2BB-/	2d\	2f/
=142	=142	=142
2C/	2c\	2e/
1D	1f	2d/
.	.	1f
2BB-/	2d\	.
=143	=143	=143
2C/	1c	2e/
2AA/	.	2c/
1GG	1B-	2d/
.	.	4c/
.	.	4d/
=144	=144	=144
2r	1c	1e
1C	.	.
.	2A/	2c/
2GG/	2B-\	[2d/
=145	=145	=145
2.BB-/	1G	2d/]
.	.	2B-/
4C/	.	.
1D	1F	2A/
.	.	4G/
.	.	4A/
=146	=146	=146
1BB-	2r	2B-/
.	1F	2F/
2r	.	1G
2C/	2E/	.
=147	=147	=147
2D\	1F	2F/
2F\	.	2A/
1C	1E	2G/
.	.	[2c/
=148	=148	=148
1FF	2F/	2c/]
.	2A/	2A/
2GG/	2G/	2B-/
[2AA/	[2c\	2r
=149	=149	=149
2AA/]	4c\]	2c/
.	4A/	.
2GG/	2B-\	2d/
2C/	2c\	2c/
2AA/	2r	[2f/
=150	=150	=150
1BB-	2B-\	2f/]
.	2d\	2d/
2C/	2c\	2e/
[2D\	[2f\	2r
=151	=151	=151
2D\]	2f\]	2f/
2F\	2d\	2a/
1C	1e	2g/
.	.	[2cc\
=152	=152	=152
1AA	2f\	2cc\]
.	2c\	2a/
1GG	1d	1b-
=153	=153	=153
2r	1c	2cc\
2C/	.	1a
1D	2.A/	.
.	.	2f/
.	4B-\	.
=154	=154	=154
2C/	2c\	2e/
2D\	1B-	2f/
2E-\	.	2g/
2F\	2A/	[2f/
=155	=155	=155
1C	1G	4f/]
.	.	8e/L
.	.	8d/J
.	.	2e/
2FF/	1F	1A
2AA/	.	.
=156	=156	=156
2GG/	2G/	2B-/
2r	1A	2c/
2D\	.	1A
2C/	2c\	.
=157	=157	=157
2D\	2B-\	2d/
1F	1A	2c/
.	.	2.f/
2BB-/	[2d\	.
.	.	4g/
=158	=158	=158
2AA/	4d\]	2.a/
.	4c\	.
2C/	2c\	.
.	.	4g/
2BB-/	2d\	2.b-\
[2F\	[2c\	.
.	.	4a/
=159	=159	=159
2F\]	2c\]	4g/
.	.	4f/
2FF/	2A/	1f
1C	1G	.
.	.	2e/
=160	=160	=160
0FFl	0Fl	0fl
==	==	==
*-	*-	*-
!!!RDF**kern: l=long note in original notation
!!!RDF**kern: i=editorial accidental
!!!RDF**kern: V=start of tuplet marker
!!!RDF**kern: Z=end of tuplet marker
!!!ENC:	Chris Gage 08-06-2012
!!!END:	2012/08/09/
!!!EED:	Jesse Rodin
!!!EEV:	2012/08/12/
!!!ONB:	Translated from MusicXML and edited on 2012/08/12/ by Craig Sapp
!!muse2ps: T^@{OPR}^u^@{ONM}{. }@{OTL}^C^@{COM}^i2I150v85,85,150Q16
